X:67
T:Jig. RDO.67
M:6/8
L:1/8
Q:3/8=110
S:Robert D. Owen MS,Indiana,1826.
R:.Jig
O:Indiana,USA
A:New Harmony
Z:vmp.Chris Partington
K:G
c|B>AG GDG|A>BA ABd|(e/f/)gG GAG|GAG B2G|!
c>dc B>cB|A>GA ABd|(e/f/)gG GDE|GAG G2:|!
|:d|g>ag gdB|Aaa a2g|def gdB|gaf gdB|!
cde gdB|aAA ABd|(e/f/)g G GDE|G>AGG2:|

